X:227
T: HEUT SCHEIDEN WIR AUS EUREM KREISE
N: E1366
O: Europa, Mitteleuropa, Deutschland
R: Staende -, Soldaten -, Kriegs - Lied, Reservisten
M: 6/8
L: 1/8
K: C
G, | G,E,G,CG,E, | F,A,G,F,E,
G, | G,CEA,DC | B,A,B,Cz
G, | E2DC2B, | DCA,A,G,
G, | G,CEA,DC | B,A,B,C2
G, | E2DC2B, | DCA,A,G,
G, | G,CEA,DC | B,A,B,C2

@@@ Tune index: 4911
